X:1
T: Bonny Tyneside
I:
C: W-7
M: 3/4
Z:
R: waltz
K: D
f>e| "D"d3 e d2| d2 F2 G2| A3 B A2| A4 AB|\
        d3 c d2| d2 e2 f2| "Em"e2 d2 B2| "A7"A4 f>e|
     "D"d3 e d2| d2 F2 G2| A3 B A2| A4 (3ABc|\
        d2 d2 e2| "Em"f a3 f2| "A7"e3 d e2| d4|]
\
fg| "D"a4 fg| a4 fg| a2 b2 f2| a4 fe|\
       d3 e d2| d2 e2 f2| "Em"e2 d2 B2| "A7"A4 f>e|
    "D"d3 e d2| d2 F2 G2| A3 B A2| A4 (3ABc|\
       d2 d2 e2| f a3 f2| "Am"e3 d e2| "D"d4|]
%
